X:1
T:Ballade Irlandaise
C:Traditionnel, abc file by Bernard Loffet
L:1/8
Q:300
M:4/4
K:C
z2[G2G,2][c2G,2][d2G,2]|[e2C,2]C,2C,2C,2|C,2[d2C,2][c2F,2]F,A|[G2C,2]C,2C,2C,2|C,2[c2C,2][c2C,2][B2C,2]|[c2A,2]A,2A,2A,2|A,2[dA,]e[f2D,2]D,e|[d2G,2]G,2G,2G,2| \
G,2[d2G,2][e2G,2][f2G,2]|[g2E,2]E,2E,2E,2|E,2[fA,]e[d2E,2][c2E,2]|[e2A,2]A,2A,2A,2|A,2[d2A,2][c2F,2]F,A|[G2C,2]C,2C,2[A2F,2]|[c2F,2]F,2F,2[d2F,2]|[c2C,2]C,2C,2C,2| \
C,8| \
Z:Created with TablEdit http://www.tabledit.com/
